public/icons/weather-icons/Squall.svg

<svg width="200" height="200" viewBox="0 0 200 200" fill="none" xmlns="http://www.w3.org/2000/svg">
<g filter="url(#filter0_d_1506_804)">
<path fill-rule="evenodd" clip-rule="evenodd" d="M141.768 54.3101C145.751 52.6414 150.366 52.4729 155.413 54.3506C165.594 58.138 170.514 67.6831 170.517 76.6604C170.521 85.6532 165.546 95.0831 155.065 98.1273C150.5 99.4529 142.424 100.286 133.444 100.86C124.271 101.447 113.58 101.791 103.434 101.992C93.2796 102.192 83.6266 102.248 76.5152 102.254C72.9584 102.257 70.035 102.248 67.9994 102.238C66.9815 102.232 66.1855 102.227 65.6432 102.223C65.372 102.221 65.1642 102.219 65.0238 102.218L64.8098 102.216C64.8091 102.216 64.8087 102.216 64.8566 97.2165C64.9045 92.2167 64.9046 92.2167 64.905 92.2167L64.9072 92.2167L65.1092 92.2185C65.246 92.2197 65.4501 92.2214 65.7175 92.2234C66.2523 92.2273 67.0402 92.2326 68.0495 92.2376C70.0682 92.2478 72.9719 92.2571 76.5066 92.2541C83.5779 92.248 93.1645 92.1921 103.237 91.9935C113.319 91.7947 123.844 91.4536 132.805 90.8804C141.959 90.2949 148.937 89.4937 152.276 88.524C157.6 86.9776 160.519 82.1996 160.517 76.6639C160.516 71.1127 157.533 65.8087 151.927 63.7231C149.081 62.6643 147.102 62.9175 145.633 63.5331C144.022 64.2082 142.526 65.538 141.186 67.358C139.859 69.1614 138.877 71.1881 138.219 72.8293C137.896 73.6352 137.664 74.3137 137.517 74.7771C137.444 75.008 137.393 75.1832 137.362 75.2914C137.346 75.3454 137.336 75.3826 137.331 75.4014L137.33 75.4045C137.329 75.4074 137.329 75.4103 137.328 75.4132C137.328 75.4139 137.328 75.4145 137.327 75.4152C136.634 78.0812 133.914 79.6853 131.244 78.9991C128.569 78.3117 126.958 75.5864 127.646 72.9119L132.488 74.1565C127.646 72.9119 127.646 72.91 127.647 72.908L127.651 72.8933L127.658 72.867L127.678 72.7915C127.694 72.7312 127.716 72.6512 127.744 72.5529C127.8 72.3565 127.88 72.0864 127.985 71.7548C128.195 71.0931 128.508 70.1774 128.937 69.107C129.784 66.9956 131.137 64.1412 133.132 61.4306C135.115 58.7366 137.928 55.9195 141.768 54.3101ZM59.8568 97.1686C59.8833 94.4073 62.1437 92.1902 64.905 92.2167L64.8566 97.2165L64.8087 102.216C62.0474 102.19 59.8303 99.9299 59.8568 97.1686Z" fill="#DADADA"/>
<path fill-rule="evenodd" clip-rule="evenodd" d="M83.4905 127.229C83.4905 127.229 83.4905 127.229 83.4891 127.215L83.4905 127.229C80.7438 127.513 78.2863 125.518 78.0016 122.771C77.717 120.024 79.7128 117.567 82.4595 117.282L82.975 122.255C82.4595 117.282 82.4601 117.282 82.4608 117.282L82.6438 117.263C82.7621 117.251 82.9364 117.234 83.1634 117.211C83.6174 117.166 84.2825 117.101 85.1334 117.021C86.8352 116.861 89.2815 116.639 92.2706 116.393C98.2452 115.901 106.406 115.309 115.134 114.915C123.849 114.521 133.199 114.32 141.532 114.62C149.692 114.913 157.461 115.699 162.668 117.542C167.677 119.315 171.532 121.824 173.988 125.091C176.526 128.465 177.306 132.314 176.645 136C175.39 142.991 169.249 148.534 162.573 150.746C159.08 151.903 155.851 151.99 152.967 151.228C150.12 150.476 147.921 148.98 146.306 147.439C144.706 145.911 143.609 144.273 142.919 143.054C142.568 142.435 142.306 141.897 142.126 141.495C142.035 141.293 141.964 141.124 141.911 140.993C141.884 140.927 141.863 140.871 141.845 140.826L141.822 140.765L141.813 140.741L141.809 140.73L141.807 140.725C141.806 140.722 141.805 140.72 146.371 139.047L141.805 140.72C140.855 138.127 142.187 135.255 144.78 134.305C147.358 133.36 150.213 134.672 151.179 137.237C151.179 137.238 151.18 137.24 151.181 137.242C151.19 137.264 151.212 137.317 151.247 137.396C151.319 137.556 151.442 137.812 151.619 138.125C151.984 138.769 152.517 139.543 153.212 140.206C153.892 140.855 154.652 141.33 155.521 141.56C156.354 141.78 157.598 141.86 159.427 141.254C163.672 139.847 166.369 136.646 166.802 134.233C166.984 133.217 166.822 132.199 165.996 131.101C165.089 129.894 163.16 128.324 159.332 126.969C155.702 125.684 149.299 124.906 141.172 124.613C133.219 124.327 124.168 124.517 115.586 124.905C107.017 125.292 98.985 125.874 93.0914 126.359C90.1464 126.601 87.7397 126.82 86.072 126.977C85.2383 127.055 84.5895 127.119 84.1508 127.162C83.9315 127.184 83.7647 127.201 83.6536 127.212L83.4905 127.229ZM151.193 137.275C151.193 137.275 151.193 137.275 151.193 137.274L151.193 137.275ZM151.193 137.275C151.194 137.278 151.195 137.28 146.5 139L151.195 137.28C151.194 137.278 151.194 137.277 151.193 137.275Z" fill="#DADADA"/>
<path fill-rule="evenodd" clip-rule="evenodd" d="M30.7329 124.882C30.7329 122.121 32.9715 119.882 35.7329 119.882H57.0349C59.7964 119.882 62.0349 122.121 62.0349 124.882C62.0349 127.644 59.7964 129.882 57.0349 129.882H35.7329C32.9715 129.882 30.7329 127.644 30.7329 124.882Z" fill="#DADADA"/>
<path fill-rule="evenodd" clip-rule="evenodd" d="M110.851 65.705C111.117 68.4536 109.105 70.8975 106.356 71.1636L105.874 66.1869C106.356 71.1636 106.356 71.1636 106.356 71.1636L106.047 71.1931C105.847 71.212 105.553 71.2395 105.173 71.2744C104.413 71.3443 103.308 71.4439 101.924 71.5633C99.1558 71.802 95.2649 72.12 90.7675 72.4381C81.7981 73.0726 70.3187 73.7143 60.5114 73.7143C50.7718 73.7143 41.8035 73.3738 35.2738 73.0339C32.0067 72.8638 29.3445 72.6936 27.495 72.5656C26.5701 72.5016 25.8481 72.448 25.3548 72.4103C25.1082 72.3915 24.9187 72.3766 24.7896 72.3663L24.6417 72.3544L24.5875 72.35C24.5871 72.3499 24.5868 72.3499 24.9999 67.367L24.5875 72.35C21.8355 72.1218 19.7889 69.7059 20.017 66.9539C20.2451 64.202 22.6608 62.1561 25.4127 62.3841L25.4525 62.3873L25.5846 62.3979C25.703 62.4074 25.8815 62.4214 26.1169 62.4394C26.5877 62.4754 27.2859 62.5272 28.1856 62.5895C29.9854 62.714 32.5902 62.8807 35.7936 63.0474C42.205 63.3812 50.9925 63.7143 60.5114 63.7143C69.9629 63.7143 81.1648 63.0924 90.062 62.4631C94.498 62.1493 98.3367 61.8355 101.065 61.6003C102.429 61.4827 103.514 61.3848 104.257 61.3165C104.628 61.2823 104.914 61.2556 105.106 61.2374L105.392 61.2102C108.14 60.9441 110.585 62.9564 110.851 65.705Z" fill="#DADADA"/>
</g>
<defs>
<filter id="filter0_d_1506_804" x="8.99963" y="40" width="186.869" height="128.723" filterUnits="userSpaceOnUse" color-interpolation-filters="sRGB">
<feFlood flood-opacity="0" result="BackgroundImageFix"/>
<feColorMatrix in="SourceAlpha" type="matrix" values="0 0 0 0 0 0 0 0 0 0 0 0 0 0 0 0 0 0 127 0" result="hardAlpha"/>
<feOffset dx="4" dy="2"/>
<feGaussianBlur stdDeviation="7.5"/>
<feComposite in2="hardAlpha" operator="out"/>
<feColorMatrix type="matrix" values="0 0 0 0 0.854167 0 0 0 0 0.854167 0 0 0 0 0.854167 0 0 0 1 0"/>
<feBlend mode="normal" in2="BackgroundImageFix" result="effect1_dropShadow_1506_804"/>
<feBlend mode="normal" in="SourceGraphic" in2="effect1_dropShadow_1506_804" result="shape"/>
</filter>
</defs>
</svg>

<svg xmlns="http://www.w3.org/2000/svg" width="200" height="200" fill="none"><g fill="#DADADA" fill-rule="evenodd" clip-rule="evenodd" filter="url(#a)"><path d="M141.768 54.31c3.983-1.669 8.598-1.837 13.645.04 10.181 3.788 15.101 13.333 15.104 22.31.004 8.993-4.971 18.423-15.452 21.467-4.565 1.326-12.641 2.159-21.621 2.733-9.173.587-19.864.931-30.01 1.132-10.154.2-19.807.256-26.919.262a1497 1497 0 0 1-10.872-.031l-.62-.005-.213-.002.047-5 .048-5h.002l.202.003.609.004c.534.004 1.322.01 2.331.015 2.02.01 4.923.02 8.458.016a1449 1449 0 0 0 26.73-.26c10.082-.2 20.607-.54 29.568-1.114 9.154-.585 16.132-1.386 19.471-2.356 5.324-1.546 8.243-6.324 8.241-11.86-.001-5.551-2.984-10.855-8.59-12.94-2.846-1.06-4.825-.806-6.294-.19-1.611.674-3.107 2.004-4.447 3.824-1.327 1.803-2.309 3.83-2.967 5.471a28 28 0 0 0-.702 1.948 19 19 0 0 0-.186.624l-.001.004-.002.008-.001.002a5 5 0 0 1-9.681-2.503l4.842 1.244c-4.842-1.244-4.842-1.246-4.841-1.248l.004-.015.007-.026.02-.076.066-.238c.056-.197.136-.467.241-.798.21-.662.523-1.578.952-2.648.847-2.111 2.2-4.966 4.195-7.676 1.983-2.694 4.796-5.511 8.636-7.12M59.857 97.17a5 5 0 0 1 5.048-4.952l-.048 5-.048 4.999a5 5 0 0 1-4.952-5.047M83.49 127.229v-.014za5 5 0 0 1-1.03-9.947l.515 4.973-.514-4.973.183-.019.52-.052a618.444 618.444 0 0 1 9.107-.818 630 630 0 0 1 22.863-1.478c8.715-.394 18.065-.595 26.398-.295 8.16.293 15.929 1.079 21.136 2.922 5.009 1.773 8.864 4.282 11.32 7.549 2.538 3.374 3.318 7.223 2.657 10.909-1.255 6.991-7.396 12.534-14.072 14.746-3.493 1.157-6.722 1.244-9.606.482-2.847-.752-5.046-2.248-6.661-3.789-1.6-1.528-2.697-3.166-3.387-4.385a19 19 0 0 1-1.008-2.061l-.066-.167-.023-.061-.009-.024-.004-.011-.002-.005c-.001-.003-.002-.005 4.564-1.678l-4.566 1.673a5 5 0 0 1 9.376-3.478q.013.034.066.154c.072.16.195.416.372.729.365.644.898 1.418 1.593 2.081.68.649 1.44 1.124 2.309 1.354.833.22 2.077.3 3.906-.306 4.245-1.407 6.942-4.608 7.375-7.021.182-1.016.02-2.034-.806-3.132-.907-1.207-2.836-2.777-6.664-4.132-3.63-1.285-10.033-2.063-18.16-2.356-7.953-.286-17.004-.096-25.586.292-8.569.387-16.601.969-22.495 1.454-2.945.242-5.351.461-7.019.618-.834.078-1.483.142-1.921.185l-.497.05zm67.703 10.046v-.001zm0 0c.001.003.002.005-4.693 1.725l4.695-1.72zM30.733 124.882a5 5 0 0 1 5-5h21.302a5 5 0 0 1 0 10H35.733a5 5 0 0 1-5-5"/><path d="M110.851 65.705a5 5 0 0 1-4.495 5.459l-.482-4.977.482 4.977-.309.03-.874.08c-.76.07-1.865.17-3.249.29-2.768.238-6.66.556-11.157.874-8.969.635-20.448 1.276-30.256 1.276-9.74 0-18.708-.34-25.237-.68-3.267-.17-5.93-.34-7.779-.468a300 300 0 0 1-2.705-.2l-.148-.012-.055-.004.413-4.983-.413 4.983a5 5 0 0 1 .826-9.966l.04.003.132.01.532.042c.47.036 1.169.088 2.069.15 1.8.125 4.404.292 7.608.458 6.411.334 15.199.667 24.717.667 9.452 0 20.654-.622 29.551-1.25a727 727 0 0 0 14.195-1.148c.371-.034.657-.06.849-.079l.286-.027a5 5 0 0 1 5.459 4.495"/></g><defs><filter id="a" width="186.869" height="128.723" x="9" y="40" color-interpolation-filters="sRGB" filterUnits="userSpaceOnUse"><feFlood flood-opacity="0" result="BackgroundImageFix"/><feColorMatrix in="SourceAlpha" result="hardAlpha" values="0 0 0 0 0 0 0 0 0 0 0 0 0 0 0 0 0 0 127 0"/><feOffset dx="4" dy="2"/><feGaussianBlur stdDeviation="7.5"/><feComposite in2="hardAlpha" operator="out"/><feColorMatrix values="0 0 0 0 0.854167 0 0 0 0 0.854167 0 0 0 0 0.854167 0 0 0 1 0"/><feBlend in2="BackgroundImageFix" result="effect1_dropShadow_1506_804"/><feBlend in="SourceGraphic" in2="effect1_dropShadow_1506_804" result="shape"/></filter></defs></svg>
